X:1
T:The New Russian Rag
T:The New Russian Rag
T:By George L. Cobb          
T:Copyright 1923, Will Rossiter the Chicago Publisher
T:Copyright 1923, Will Rossiter the Chicago Publisher
T:Copyright 1923, Will Rossiter the Chicago Publisher
T:Copyright 1923, Will Rossiter the Chicago Publisher
T:Copyright 1923, Will Rossiter the Chicago Publisher
T:Copyright 1923, Will Rossiter the Chicago Publisher
T:Copyright 1923, Will Rossiter the Chicago Publisher
C:George L. Cobb
Z:Copyright 1923, Will Rossiter the Chicago Publisher
%%score { ( 1 2 ) | ( 3 4 ) }
L:1/8
Q:1/4=120
M:4/4
K:Eb
V:1 treble nm="Piano" snm="Pno."
V:2 treble 
V:3 bass 
V:4 bass 
V:1
"^Interpolating the world famous PRELUDE in C sharp minor by Sergei Rachmaninoff""^Composer of the Original \"Russian Rag\"""^Allegro moderato" [A,A]4 [G,G]4 | %1
[Q:1/4=160] (3[G,C]=B,C (3EDE (3G_G=G (3c=Bc | (3ede (3g_g=g (3c'=bc' (3e'd'e' | %3
 (3[df']d'c' (3afd (3=BAG (3FED | C z z2 z4 | z8 |: %6
!mf!"^With respect" z3/2 A,<[CDF]A,/ z3/2 G,<[=B,FG]G,/ | z3/2 C<[Gc]C/ B>E [D=Ad]2 | %8
 z3/2 _A,<[CDF]A,/ z3/2 G,<[=B,FG]G,/ | z3/2 C<[Gc]C/ c>G [Fcf]2 | %10
 z3/2 _C<[EFA]C/ z3/2 B,<[DAB]B,/ | z3/2 E<[Be]E/ e>B [Aea]2 | z3/2 G<[=Acg]G/ z3/2 F<[Acf]F/ | %13
 z3/2 G<dG/ (3[Aea][I:staff +1][A,C][I:staff -1][Aea][I:staff +1] (3[A,C][I:staff -1][Fcf][I:staff +1][A,C] | %14
[I:staff -1] (3[Gdg][I:staff +1][B,D][I:staff -1][Gdg][I:staff +1] (3[G,B,][I:staff -1][EBe][I:staff +1][G,B,][I:staff -1] (3[Fcf][I:staff +1][A,C][I:staff -1][Fcf][I:staff +1] (3[F,A,][I:staff -1][Ad][I:staff +1][F,A,] | %15
[I:staff -1] (3[EBe][I:staff +1][G,B,][I:staff -1][EBe][I:staff +1] (3[G,B,][I:staff -1][EBe][I:staff +1][G,B,][I:staff -1] (3[Fcf][I:staff +1][A,C][I:staff -1][Fcf][I:staff +1] (3[F,A,][I:staff -1][DAd][I:staff +1][F,A,] | %16
[I:staff -1] (3[EBe][I:staff +1][G,B,][I:staff -1][EBe][I:staff +1] (3[E,G,][I:staff -1][CGc][I:staff +1][E,G,][I:staff -1] (3[DAd][I:staff +1][F,A,][I:staff -1][DAd][I:staff +1] (3[D,F,][I:staff -1][=B,F=B][I:staff +1][D,F,] | %17
[I:staff -1] (3[CGc][I:staff +1][E,G,][I:staff -1][CGc][I:staff +1] (3[E,G,][I:staff -1][CGc][I:staff +1][E,G,][I:staff -1] (3[EBe][I:staff +1][G,B,][I:staff -1][EBe] [D=Ad]2 | %18
 ^F>G[=Fd]>G _A>[Fe]_G>A | [=Fd][=E^c][Fd][G_e]- G>^F [=Fd]2 | [EG=c]2 A!>!G- GFED |1 %21
 !>!C2 !>!=B,2 !>!_B,2 !>!=A,2 :|2 C4 [ceg=ac']2 z2 |: (3(g'e'c' (3gc'e' (3g'd'b (3gbd') | %24
 z3/2 [=b=e']<[c'f'][be']/ [c'f'] [_c'g']2 [c'f'] | (3(e'bg (3egb (3e'c'=a (3_gac') | %26
 z3/2 [g_d']<[a=d'][g_d']/ [g=d'] [fe']2 [fd'] | z3/2 [ec']<c[gc']/ d>[gc']e>[gc'] | %28
 g[fac']=e[fac']- [fac']>e [fac']2 | z3/2 [gd']<d[=bd']/ _e>[bd']f>[bd'] | %30
 a[gc'e']^f[gc'e']- [gc'e']>[ec'e'] [=fd'f']>[^f^d'^f'] | (3(g'e'c' (3gc'e' (3g'd'b (3gbd') | %32
 z3/2 [=b=e']<[c'f'][be']/ [c'f'] [_c'g']2 [c'f'] | (3(e'bg (3egb (3e'c'=a (3_gac') | %34
 z3/2 [g_d']<[a=d'][g_d']/ [g=d'] [fe']2 [fd'] | z3/2 [ec']<c[gc']/ d>[gc']e>[gc'] | %36
 g[fac']=e[fac']- [fac']>e [ac']2 | [Gcg]>_e[G=Ac]>G [F_Ae] [FGd]2 [EGc]- | %38
 [EGc]4 !>![cegc']2 z2 :|!mf!"^With respect" z3/2 A,<[CDF]A,/ z3/2 G,<[=B,FG]G,/ | %40
 z3/2 C<[Gc]C/ B>E [D=Ad]2 | z3/2 _A,<[CDF]A,/ z3/2 G,<[=B,FG]G,/ | z3/2 C<[Gc]C/ c>G [Fcf]2 | %43
 z3/2 _C<[EFA]C/ z3/2 B,<[DAB]B,/ | z3/2 E<[Be]E/ e>B [Aea]2 | z3/2 G<[=Acg]G/ z3/2 F<[Acf]F/ | %46
 z3/2 G<dG/ (3[Aea][I:staff +1][A,C][I:staff -1][Aea][I:staff +1] (3[A,C][I:staff -1][Fcf][I:staff +1][A,C] | %47
[I:staff -1] (3[Gdg][I:staff +1][B,D][I:staff -1][Gdg][I:staff +1] (3[G,B,][I:staff -1][EBe][I:staff +1][G,B,][I:staff -1] (3[Fcf][I:staff +1][A,C][I:staff -1][Fcf][I:staff +1] (3[F,A,][I:staff -1][Ad][I:staff +1][F,A,] | %48
[I:staff -1] (3[EBe][I:staff +1][G,B,][I:staff -1][EBe][I:staff +1] (3[G,B,][I:staff -1][EBe][I:staff +1][G,B,][I:staff -1] (3[Fcf][I:staff +1][A,C][I:staff -1][Fcf][I:staff +1] (3[F,A,][I:staff -1][DAd][I:staff +1][F,A,] | %49
[I:staff -1] (3[EBe][I:staff +1][G,B,][I:staff -1][EBe][I:staff +1] (3[E,G,][I:staff -1][CGc][I:staff +1][E,G,][I:staff -1] (3[DAd][I:staff +1][F,A,][I:staff -1][DAd][I:staff +1] (3[D,F,][I:staff -1][=B,F=B][I:staff +1][D,F,] | %50
[I:staff -1] (3[CGc][I:staff +1][E,G,][I:staff -1][CGc][I:staff +1] (3[E,G,][I:staff -1][CGc][I:staff +1][E,G,][I:staff -1] (3[EBe][I:staff +1][G,B,][I:staff -1][EBe] [D=Ad]2 | %51
 ^F>G[=Fd]>G _A>[Fe]_G>A | [=Fd][=E^c][Fd][G_e]- G>^F [=Fd]2 | [EG=c]2 A!>!G- GFED | %54
 C4 [ceg=ac']2 z2 |[M:2/2]"_TRIO"!f! [db]>Bd>f [ca] f2 [ca] | [db]>Bd>f a f2 [=Ba] | %57
 [Bdb]2 [Aa] [Ff]2 [Dd][Cc][=B,=B] | [B,B]2 z2{/=a} [Bb]2 z2 || %59
!mp!"^Coyly" [_G=A]>[=GB][eg]>[_g=a] [=gb]>[e'g'][_GA]>[=GB] | %60
 [eg]>[_g=a][=gb]>[e'g']- [e'g']>=e[Gd]>c | [^G=B]>[=Ac][=ef]>[^g=b] [=ac']>[e'f'][GB]>[Ac] | %62
 [ef]>[a=b][ac']>[e'f']- [e'f']>e[=Ad]>c | [G=A]>[_AB][df]>[g=a] [_ab]>[d'f'][G=A]>B | %64
 (3fgf [G^c=e]>[Adf] [Bdg]>[Adf][FAd]>[EAB] | [_EB_e]>[Fcf][Adg]>[Aea] [Bfb]>[cgc'][dad']>[ebe'] | %66
 [fc'f']>[ebe'][dad']>[cgc'] [Bfb]>[Aea][Gdg]>[Fcf] | %67
 [_G=A]>[=GB][eg]>[_g=a] [=gb]>[e'g'][_GA]>[=GB] | [eg]>[_g=a][=gb]>[e'g']- [e'g']>=e[Gd]>c | %69
 [^G=B]>[=Ac][=ef]>[^g=b] [=ac']>[e'f'][GB]>[Ac] | [ef]>[a=b][ac']>[e'f']- [e'f']>e[=Ad]>c | %71
 [G=A]>[_A_B][df]>[g=a] [_ab]>[d'f'][G=A]>B | (3fgf [G^c=e]>[Adf] [Bdg]>[Adf][FAd]>[EAB] | %73
 (3[_EG_e]=cB (3GEC (3B,G,B, (3CEA | B z [ABdb]2 [egbe'] z2 z || !^![A,A]4 !^![G,G]4 | %76
 (3[G,C]=B,C (3EDE (3G^FG (3c=Bc | (3eGc (3d^Fc (3_d=F=B (3cEA | (3eGc (3d^Fc (3_d=F=B (3cEA | %79
 !^![_C_c]4 !^![B,B]4 | (3[B,E]DE (3_GFG (3B=AB (3ede | (3_gBe (3f=Ae (3_f_A=d (3e_GB | %82
 (3_gBe (3f=Ae (3_f_A=d (3e_GB | [=A^c]>[=B^d][^c=f]>[Ac] [Be] [cf]3 | %84
 [D^F]>[=E^G][F=B]>[DF] [EG] [FB]3 | [=D=F_B]2 [_E^F=B]2 [=E_Bc] [_E=A^c]2 [D_ABd]- | %86
 [DABd]4{/=a} [Bb]2 z2 || %87
"^With utter abandon"!ff! [_G=A]>[=GB][eg]>[_g=a] [=gb]>[e'g'][_GA]>[=GB] | %88
 [eg]>[_g=a][=gb]>[e'g']- [e'g']>=e[Gd]>c | [^G=B]>[=Ac][=ef]>[^g=b] [=ac']>[e'f'][GB]>[Ac] | %90
 [ef]>[a=b][ac']>[e'f']- [e'f']>e[=Ad]>c | [G=A]>[_AB][df]>[g=a] [_ab]>[d'f'][G=A]>B | %92
 (3fgf [G^c=e]>[Adf] [Bdg]>[Adf][FAd]>[EAB] | [_EB_e]>[Fcf][Adg]>[Aea] [Bfb]>[cgc'][dad']>[ebe'] | %94
 [fc'f']>[ebe'][dad']>[cgc'] [Bfb]>[Aea][Gdg]>[Fcf] | %95
 [_G=A]>[=GB][eg]>[_g=a] [=gb]>[e'g'][_GA]>[=GB] | [eg]>[_g=a][=gb]>[e'g']- [e'g']>=e[Gd]>c | %97
 [^G=B]>[=Ac][=ef]>[^g=b] [=ac']>[e'f'][GB]>[Ac] | [ef]>[a=b][ac']>[e'f']- [e'f']>e[=Ad]>c | %99
 [G=A]>[_A_B][df]>[g=a] [_ab]>[d'f'][G=A]>B | (3fgf [G^c=e]>[Adf] [Bdg]>[Adf][FAd]>[EAB] | %101
 (3[_EG_e]=cB (3GEC (3B,G,B, (3CEA | B z [ABdb]2 [egbe'] z2 z |] %103
V:2
 z2 !>![Fcf]2 z2 !>![G=Bg]2 | x8 | x8 | x8 | x8 | x8 |: x8 | x4 e2 x2 | x8 | x4 g2 x2 | x8 | %11
 x4 b2 x2 | x8 | x2 g2 x4 | x8 | x8 | x8 | x8 | x8 | x4 e2 x2 | x8 |1 x8 :|2 x8 |: x8 | x8 | x8 | %26
 x8 | x8 | x8 | x8 | x8 | x8 | x8 | x8 | x8 | x8 | x8 | x8 | x8 :| x8 | x4 e2 x2 | x8 | x4 g2 x2 | %43
 x8 | x4 b2 x2 | x8 | x2 g2 x4 | x8 | x8 | x8 | x8 | x8 | x4 e2 x2 | x8 | x8 |[M:2/2] x8 | x8 | %57
 x8 | x8 || x8 | x8 | x8 | x8 | x8 | [Ad]2 x6 | x8 | x8 | x8 | x8 | x8 | x8 | x8 | [Ad]2 x6 | x8 | %74
 x8 || z2 !>![Fcf]2 z2 !>![G=Bg]2 | x8 | e2 d2 _d2 c2 | e2 =d2 _d2 c2 | z2 !>![Aea]2 z2 !>![Bdb]2 | %80
 x8 | _g2 f2 _f2 e2 | _g2 f2 _f2 e2 | x8 | x8 | x8 | x8 || x8 | x8 | x8 | x8 | x8 | [Ad]2 x6 | x8 | %94
 x8 | x8 | x8 | x8 | x8 | x8 | [Ad]2 x6 | x8 | x8 |] %103
V:3
 [A,,,A,,]4 [G,,,G,,]4 | !arpeggio![C,,G,,E,] z z2 z4 | z8 |[K:treble] [DFAc]4[K:bass] [G,DF]2 z2 | %4
 !arpeggio![C,,G,,E,] z [G,,,D,,G,,]2 [C,,G,,C,]2 [G,,,D,,G,,]2 | %5
 [C,,G,,C,]2 [G,,,D,,G,,]2 [C,,G,,C,]2 [G,,,D,,G,,]2 |: !>![A,,,A,,]4 !>![G,,,G,,]4 | %7
!8vb(! !>![C,,,C,,]8!8vb)! | !>![_A,,,_A,,]4 !>![G,,,G,,]4 |!8vb(! !>![C,,,C,,]8!8vb)! | %10
 !>![_C,,_C,]4 !>![B,,,B,,]4 |!8vb(! !>![E,,,E,,]8!8vb)! | !>![E,,E,]4 !>![=D,,=D,]4 | %13
 z2 [B,D]2 x4 | x8 | x8 | x8 | x6 [^F,C]2 | !arpeggio![G,,D,=B,]2 z2 !arpeggio![_A,,_E,C]2 z2 | %19
 !arpeggio![G,,D,G,]2 !arpeggio![G,,D,A,]2 !arpeggio![G,,D,=A,]2 !arpeggio![G,,D,=B,]2 | %20
 [C,C]2 [A,,_A,]!>![G,,G,]- [G,,G,][F,,F,][E,,E,][D,,D,] |1 %21
 !>![C,,C,]2 !>![=B,,,=B,,]2 !>![_B,,,_B,,]2 !>![=A,,,=A,,]2 :|2 [C,,C,]2 G,,2 [C,,C,]2 z2 |: %23
 !>![C,C]4 !>![B,,B,]4 | !>![=A,,=A,]4 !>![_A,,_A,]4 | !>![G,,G,]4 !>![^F,,^F,]4 | %26
 [=F,,=F,]4 [G,,G,]4 | !>![C,C]2 [G,CE]2 [G,,G,]2 [G,CE]2 | [A,,A,]2 [A,CF]2 [F,,F,]2 [A,CF]2 | %29
 !>![=B,,=B,]2 [G,B,F]2 [G,,G,]2 [G,B,F]2 | [C,C]2 [G,CE]2 [G,,G,]2 [G,CE]2 | %31
 !>![C,C]4 !>![B,,B,]4 | !>![=A,,=A,]4 !>![_A,,_A,]4 | !>![G,,G,]4 !>![^F,,^F,]4 | %34
 [=F,,=F,]4 [G,,G,]4 | [C,C]2 [G,CE]2 [G,,G,]2 [G,CE]2 | [A,,A,]2 [A,CF]2 [F,,F,]2 [A,CF]2 | %37
 !arpeggio![G,,E,=A,]2 !arpeggio![G,,E,A,]2 !arpeggio![G,,D,=B,]2 !arpeggio![G,,D,B,]2 | %38
 [C,C]2 [G,,G,]2 [C,,C,]2 z2 :| !>![A,,,A,,]4 !>![G,,,G,,]4 |!8vb(! !>![C,,,C,,]8!8vb)! | %41
 !>![_A,,,_A,,]4 !>![G,,,G,,]4 |!8vb(! !>![C,,,C,,]8!8vb)! | !>![_C,,_C,]4 !>![B,,,B,,]4 | %44
!8vb(! !>![E,,,E,,]8!8vb)! | !>![E,,E,]4 !>![=D,,=D,]4 | z2 [B,D]2 x4 | x8 | x8 | x8 | x6 [^F,C]2 | %51
 !arpeggio![G,,D,=B,]2 z2 !arpeggio![_A,,_E,C]2 z2 | %52
 !arpeggio![G,,D,G,]2 !arpeggio![G,,D,A,]2 !arpeggio![G,,D,=A,]2 !arpeggio![G,,D,=B,]2 | %53
 [C,C]2 [A,,_A,]!>![G,,G,]- [G,,G,][F,,F,][E,,E,][D,,D,] | [C,,C,]2 G,,2 [C,,C,]2 z2 | %55
[M:2/2][K:treble] [B,FA]2 [B,FA]2 [B,EA]2 [B,EA]2 | [B,FA]2 [B,FA]2 [B,EA]2 [B,EA]2 | %57
 [B,FA]2[K:bass] A, F,2 D,C,=B,, | B,,2 [B,,,B,,]2 [C,,C,]2 [D,,D,]2 || %59
 !arpeggio!!>![E,,B,,G,]2 [G,B,E]2 !>![D,D]2 [G,B,E]2 | !>![C,C]2 [G,B,E]2 !>![B,,B,]2 [B,C=E]2 | %61
 [=A,,=A,]2 [F,A,E]2 !>![G,,G,]2 [F,A,E]2 | !>![F,,F,]2 [F,=A,E]2 !>![E,,E,]2 [F,A,E]2 | %63
 !>![D,,D,]2 [A,B,D]2 !>![C,,C,]2 [A,B,D]2 | !>![B,,,B,,]2 [A,B,D]2 [B,,,B,,]2 [F,A,]2 | %65
 !arpeggio![E,,B,,G,]>A,B,>C D>EF>G | A>GF>E D>CB,>A, | %67
 !arpeggio!!>![E,,B,,G,]2 [G,B,E]2 !>![D,D]2 [G,B,E]2 | !>![C,C]2 [G,B,E]2 !>![B,,B,]2 [B,C=E]2 | %69
 [=A,,=A,]2 [F,A,E]2 !>![G,,G,]2 [F,A,E]2 | !>![F,,F,]2 [F,=A,E]2 !>![E,,E,]2 [F,A,E]2 | %71
 !>![D,,D,]2 [A,B,D]2 !>![C,,C,]2 [A,B,D]2 | !>![B,,,B,,]2 [A,B,D]2 [B,,,B,,]2 [F,A,]2 | %73
 !arpeggio![E,,B,,G,] z z2 z4 | z2 !arpeggio![B,,F,D]2 !arpeggio![E,B,G] z [E,,E,]!8vb(! z!8vb)! || %75
 !^![A,,,A,,]4 !^![G,,,G,,]4 | !arpeggio![C,,G,,E,] z z2 z4 | %77
 !arpeggio![C,B,]2 !arpeggio![C,=A,]2 !arpeggio![C,_A,]2 !arpeggio![C,G,]2 | %78
 !arpeggio![C,B,]2 !arpeggio![C,=A,]2 !arpeggio![C,_A,]2 !arpeggio![C,G,]2 | %79
 !^![_C,,_C,]4 !^![B,,,B,,]4 | !arpeggio![E,,B,,_G,] z z2 z4 | %81
 !arpeggio![E,_D]2 !arpeggio![E,C]2 !arpeggio![E,=B,]2 !arpeggio![E,_B,]2 | %82
 !arpeggio![E,_D]2 !arpeggio![E,C]2 !arpeggio![E,=B,]2 !arpeggio![E,_B,]2 | %83
 !arpeggio![=B,,_G,E]4 !arpeggio![B,,G,E]4 | !arpeggio![=E,,=B,,A,]4 !arpeggio![E,,B,,A,]4 | %85
 [_B,,_B,]2 [=A,,=A,]2 [=G,,=G,]2 [^F,,^F,]2 | [=F,,=F,]2 [B,,,B,,]2 [C,,C,]2 [D,,D,]2 || %87
 !arpeggio!!>![E,,B,,G,]2 [G,B,E]2 !>![D,D]2 [G,B,E]2 | !>![C,C]2 [G,B,E]2 !>![B,,B,]2 [B,C=E]2 | %89
 [=A,,=A,]2 [F,A,E]2 !>![G,,G,]2 [F,A,E]2 | !>![F,,F,]2 [F,=A,E]2 !>![E,,E,]2 [F,A,E]2 | %91
 !>![D,,D,]2 [A,B,D]2 !>![C,,C,]2 [A,B,D]2 | !>![B,,,B,,]2 [A,B,D]2 [B,,,B,,]2 [F,A,]2 | %93
 !arpeggio![E,,B,,G,]>A,B,>C D>EF>G | A>GF>E D>CB,>A, | %95
 !arpeggio!!>![E,,B,,G,]2 [G,B,E]2 !>![D,D]2 [G,B,E]2 | !>![C,C]2 [G,B,E]2 !>![B,,B,]2 [B,C=E]2 | %97
 [=A,,=A,]2 [F,A,E]2 !>![G,,G,]2 [F,A,E]2 | !>![F,,F,]2 [F,=A,E]2 !>![E,,E,]2 [F,A,E]2 | %99
 !>![D,,D,]2 [A,B,D]2 !>![C,,C,]2 [A,B,D]2 | !>![B,,,B,,]2 [A,B,D]2 [B,,,B,,]2 [F,A,]2 | %101
 !arpeggio![E,,B,,G,] z z2 z4 | z2 !arpeggio![B,,F,D]2 !arpeggio![E,B,G] z [E,,E,]!8vb(! z!8vb)! |] %103
V:4
 z2 !>![C,F,C]2 z2 !>![F,=B,DF]2 | x8 | x8 |[K:treble] x4[K:bass] x4 | x8 | x8 |: x8 | %7
!8vb(! z2!8vb)! [E,G,]2 [G,B,]2 [^F,=A,]2 | x8 |!8vb(! z2!8vb)! [E,G,]2 [B,C]2 [A,C]2 | x8 | %11
!8vb(! z2!8vb)! [G,B,]2 [_DE]2 [CE]2 | z2 [CE]2 z2 [C=D]2 | !>![G,,,G,,]8- | [G,,,G,,]2 z2 z4 | %15
 x8 | x8 | x8 | x8 | x8 | x8 |1 x8 :|2 x8 |: z2 [CEG]2 z2 [B,DG]2 | z2 [=A,EF]2 z2 [_A,_CE]2 | %25
 z2 [G,B,E]2 z2 [^F,=A,E]2 | z2 [_A,CF]2 z2 [G,=B,F]2 | x8 | x8 | x8 | x8 | z2 [CEG]2 z2 [B,DG]2 | %32
 z2 [=A,EF]2 z2 [_A,_CE]2 | z2 [G,B,E]2 z2 [^F,=A,E]2 | z2 [_A,CF]2 z2 [G,=B,F]2 | x8 | x8 | x8 | %38
 x8 :| x8 |!8vb(! z2!8vb)! [E,G,]2 [G,B,]2 [^F,=A,]2 | x8 |!8vb(! z2!8vb)! [E,G,]2 [B,C]2 [A,C]2 | %43
 x8 |!8vb(! z2!8vb)! [G,B,]2 [_DE]2 [CE]2 | z2 [CE]2 z2 [C=D]2 | !>![G,,,G,,]8- | %47
 [G,,,G,,]2 z2 z4 | x8 | x8 | x8 | x8 | x8 | x8 | x8 |[M:2/2][K:treble] x8 | x8 | x2[K:bass] x6 | %58
 x8 || x8 | x8 | x8 | x8 | x8 | x8 | x8 | x8 | x8 | x8 | x8 | x8 | x8 | x8 | x8 | %74
 x7!8vb(! x!8vb)! || z2 !>![C,F,C]2 z2 !>![F,=B,DF]2 | x8 | x8 | x8 | %79
 z2 !>![E,A,E]2 z2 !>![A,DFA]2 | x8 | x8 | x8 | x8 | x8 | x8 | x8 || x8 | x8 | x8 | x8 | x8 | x8 | %93
 x8 | x8 | x8 | x8 | x8 | x8 | x8 | x8 | x8 | x7!8vb(! x!8vb)! |] %103

